lib/svgs/file3.svg

<?xml version="1.0" encoding="UTF-8" standalone="no"?>
<svg width="20px" height="20px" viewBox="0 0 20 20" version="1.1" xmlns="http://www.w3.org/2000/svg" xmlns:xlink="http://www.w3.org/1999/xlink">
    <defs></defs>
    <g id="Icons" stroke="none" stroke-width="1" fill="none" fill-rule="evenodd">
        <g id="Web" transform="translate(-97.000000, -1612.000000)" fill="#000000">
            <g id="file/file3" transform="translate(97.000000, 1612.000000)">
                <path d="M16.331,7.307 L11.493,2.469 C11.193,2.169 10.786,2 10.361,2 L5.6,2 C4.72,2 4,2.72 4,3.6 L4,16.4 C4,17.28 4.72,18 5.6,18 L15.2,18 C16.08,18 16.8,17.28 16.8,16.4 L16.8,8.439 C16.8,8.014 16.631,7.607 16.331,7.307 M15.2,16.8 L5.6,16.8 C5.383,16.8 5.2,16.617 5.2,16.4 L5.2,3.6 C5.2,3.383 5.383,3.2 5.6,3.2 L10.001,3.2 L10.001,7.083 C10.001,8 10.751,8.75 11.668,8.75 L15.6,8.75 L15.6,16.4 C15.6,16.617 15.417,16.8 15.2,16.8 M11.201,3.874 L14.877,7.55 L11.668,7.55 C11.415,7.55 11.201,7.336 11.201,7.083 L11.201,3.874 M10.0012,14.04 L6.6682,14.04 C6.3362,14.04 6.0672,14.309 6.0672,14.64 C6.0672,14.971 6.3362,15.239 6.6682,15.239 L10.0012,15.239 C10.3332,15.239 10.6012,14.971 10.6012,14.64 C10.6012,14.309 10.3332,14.04 10.0012,14.04 M6.6672,11.2334 C6.3362,11.2334 6.0672,11.5024 6.0672,11.8334 C6.0672,12.1654 6.3362,12.4334 6.6672,12.4334 L13.3342,12.4334 C13.6662,12.4334 13.9342,12.1654 13.9342,11.8334 C13.9342,11.5024 13.6662,11.2334 13.3342,11.2334 L6.6672,11.2334" id="Shape"></path>
            </g>
        </g>
    </g>
</svg>

<svg xmlns="http://www.w3.org/2000/svg" viewBox="0 0 20 20">
    <path fill="#000" fill-rule="evenodd" d="M16.331 7.307l-4.838-4.838A1.6 1.6 0 0 0 10.361 2H5.6C4.72 2 4 2.72 4 3.6v12.8c0 .88.72 1.6 1.6 1.6h9.6c.88 0 1.6-.72 1.6-1.6V8.439a1.6 1.6 0 0 0-.469-1.132M15.2 16.8H5.6a.405.405 0 0 1-.4-.4V3.6c0-.217.183-.4.4-.4h4.401v3.883c0 .917.75 1.667 1.667 1.667H15.6v7.65c0 .217-.183.4-.4.4M11.201 3.874l3.676 3.676h-3.209a.473.473 0 0 1-.467-.467V3.874m-1.2 10.166H6.668a.6.6 0 1 0 0 1.199h3.333a.599.599 0 1 0 0-1.199m-3.334-2.807a.6.6 0 0 0 0 1.2h6.667a.6.6 0 1 0 0-1.2H6.667"/>
</svg>
